src/images/svg/camera.svg

<svg width="64" height="64" viewBox="0 0 64 64" fill="none" xmlns="http://www.w3.org/2000/svg">
<path d="M56.381 22.8571V13.6959C56.3811 12.0825 55.7414 10.5349 54.6023 9.39238C53.4631 8.24982 51.9175 7.60551 50.3041 7.60067L41.143 7.57324M56.381 41.1428V50.2856C56.381 51.9022 55.7389 53.4525 54.5958 54.5956C53.4527 55.7387 51.9024 56.3809 50.2858 56.3809H41.143M22.8572 7.57324L13.6961 7.60372C12.0827 7.60856 10.5371 8.25287 9.39792 9.39543C8.2588 10.538 7.61913 12.0856 7.61914 13.699V22.8571M22.8572 56.3809H13.7144C12.0978 56.3809 10.5475 55.7387 9.40439 54.5956C8.26132 53.4525 7.61914 51.9022 7.61914 50.2856V41.1428" stroke="#FAFAFA" stroke-linecap="round" stroke-linejoin="round"/>
<path d="M32 37.5C33.25 37.5 34.3127 37.0627 35.188 36.188C36.0627 35.3127 36.5 34.25 36.5 33C36.5 31.75 36.0627 30.6873 35.188 29.812C34.3127 28.9373 33.25 28.5 32 28.5C30.75 28.5 29.6873 28.9373 28.812 29.812C27.9373 30.6873 27.5 31.75 27.5 33C27.5 34.25 27.9373 35.3127 28.812 36.188C29.6873 37.0627 30.75 37.5 32 37.5ZM24 41C23.45 41 22.9793 40.8043 22.588 40.413C22.196 40.021 22 39.55 22 39V27C22 26.45 22.196 25.9793 22.588 25.588C22.9793 25.196 23.45 25 24 25H27.15L29 23H35L36.85 25H40C40.55 25 41.021 25.196 41.413 25.588C41.8043 25.9793 42 26.45 42 27V39C42 39.55 41.8043 40.021 41.413 40.413C41.021 40.8043 40.55 41 40 41H24Z" fill="#FAFAFA"/>
</svg>

<svg width="64" height="64" fill="none" xmlns="http://www.w3.org/2000/svg"><path d="M56.381 22.857v-9.161A6.095 6.095 0 0 0 50.304 7.6l-9.161-.028m15.238 33.57v9.143a6.095 6.095 0 0 1-6.095 6.095h-9.143M22.857 7.573l-9.16.03A6.095 6.095 0 0 0 7.618 13.7v9.158m15.238 33.524h-9.143a6.095 6.095 0 0 1-6.095-6.095v-9.143" stroke="#FAFAFA" stroke-linecap="round" stroke-linejoin="round"/><path d="M32 37.5c1.25 0 2.313-.437 3.188-1.312S36.5 34.25 36.5 33c0-1.25-.437-2.313-1.312-3.188S33.25 28.5 32 28.5c-1.25 0-2.313.437-3.188 1.312S27.5 31.75 27.5 33c0 1.25.437 2.313 1.312 3.188S30.75 37.5 32 37.5zM24 41c-.55 0-1.02-.196-1.412-.587A1.927 1.927 0 0 1 22 39V27c0-.55.196-1.02.588-1.412A1.923 1.923 0 0 1 24 25h3.15L29 23h6l1.85 2H40c.55 0 1.021.196 1.413.588.391.391.587.862.587 1.412v12c0 .55-.196 1.021-.587 1.413A1.928 1.928 0 0 1 40 41H24z" fill="#FAFAFA"/></svg>
